svgs/light/retweet.svg

<svg xmlns="http://www.w3.org/2000/svg" viewBox="0 0 640 512"><!--! Font Awesome Pro 6.3.0 by @fontawesome - https://fontawesome.com License - https://fontawesome.com/license (Commercial License) Copyright 2023 Fonticons, Inc. --><path d="M336 368h-192V224h96c6.281 0 11.97-3.656 14.56-9.375c2.609-5.719 1.609-12.44-2.516-17.16l-112-128c-6.094-6.938-18-6.938-24.09 0l-112 128c-4.125 4.719-5.125 11.44-2.516 17.16C4.031 220.3 9.719 224 16 224h96v160c0 8.844 7.156 16 16 16h208c8.844 0 16-7.156 16-16S344.8 368 336 368zM51.27 192L128 104.3L204.7 192H51.27zM638.6 297.4C635.1 291.7 630.3 288 624 288h-96V128c0-8.844-7.156-16-16-16H304C295.2 112 288 119.2 288 128s7.156 16 16 16h192V288h-96c-6.281 0-11.97 3.656-14.56 9.375c-2.609 5.719-1.609 12.44 2.516 17.16l112 128C503 446 507.4 448 512 448s9-2 12.05-5.469l112-128C640.2 309.8 641.2 303.1 638.6 297.4zM512 407.7L435.3 320h153.5L512 407.7z"/></svg>

<svg xmlns="http://www.w3.org/2000/svg" viewBox="0 0 640 512"><!-- Font Awesome Pro 6.0.0-alpha2 by @fontawesome - https://fontawesome.com License - https://fontawesome.com/license (Commercial License) --><path d="M336.001 368H144.001V224H240.001C246.282 224 251.97 220.344 254.564 214.625C257.173 208.906 256.173 202.187 252.048 197.469L140.048 69.469C133.954 62.531 122.048 62.531 115.954 69.469L3.954 197.469C-0.171 202.187 -1.171 208.906 1.439 214.625C4.032 220.344 9.72 224 16.001 224H112.001V384C112.001 392.844 119.157 400 128.001 400H336.001C344.845 400 352.001 392.844 352.001 384S344.845 368 336.001 368ZM51.267 192L128.001 104.312L204.735 192H51.267ZM638.564 297.375C635.97 291.656 630.282 288 624.001 288H528.001V128C528.001 119.156 520.845 112 512.001 112H304.001C295.157 112 288.001 119.156 288.001 128S295.157 144 304.001 144H496.001V288H400.001C393.72 288 388.032 291.656 385.439 297.375C382.829 303.094 383.829 309.813 387.954 314.531L499.954 442.531C503.001 446 507.392 448 512.001 448S521.001 446 524.048 442.531L636.048 314.531C640.173 309.812 641.173 303.094 638.564 297.375ZM512.001 407.688L435.267 320H588.735L512.001 407.688Z"/></svg>
